packages/tokens/icons/neckMedal/size32Px.svg

<svg viewBox="0 0 32 32" fill="none" xmlns="http://www.w3.org/2000/svg" width="1em" height="1em"><circle cx="16.5" cy="23" r="5.5" stroke="currentColor"/><path d="M13.2836 21.9549L15.0142 21.9549C15.4474 21.9549 15.8313 21.676 15.9652 21.2639L16.5 19.618L17.0348 21.2639C17.1687 21.676 17.5526 21.9549 17.9858 21.9549H19.7164L18.3164 22.9721C17.9659 23.2268 17.8192 23.6781 17.9531 24.0902L18.4879 25.7361L17.0878 24.7188C16.7373 24.4642 16.2627 24.4642 15.9122 24.7188L14.5121 25.7361L15.0469 24.0902C15.1808 23.6781 15.0341 23.2268 14.6836 22.9721L13.2836 21.9549ZM13.2836 21.9549V21.4549L13.2836 21.9549L12.9897 22.3594L13.2836 21.9549Z" stroke="currentColor" stroke-linejoin="round"/><rect x="5" y="6.53564" width="5" height="16" rx="2" transform="rotate(-45 5 6.53564)" stroke="currentColor"/><rect width="5" height="16" rx="2" transform="matrix(-0.707107 -0.707107 -0.707107 0.707107 27.8492 6.53564)" stroke="currentColor"/></svg>

<svg xmlns="http://www.w3.org/2000/svg" fill="none" viewBox="0 0 32 32" width="1em" height="1em"><circle cx="16.5" cy="23" r="5.5" stroke="currentColor"/><path stroke="currentColor" stroke-linejoin="round" d="M13.284 21.955h1.73a1 1 0 0 0 .951-.691l.535-1.646.535 1.646a1 1 0 0 0 .95.69h1.731l-1.4 1.018a1 1 0 0 0-.363 1.118l.535 1.646-1.4-1.017a1 1 0 0 0-1.176 0l-1.4 1.017.535-1.646a1 1 0 0 0-.363-1.118l-1.4-1.017Zm0 0v-.5.5l-.294.404.294-.404Z"/><rect width="5" height="16" x="5" y="6.536" stroke="currentColor" rx="2" transform="rotate(-45 5 6.536)"/><rect width="5" height="16" stroke="currentColor" rx="2" transform="scale(-1 1) rotate(-45 -6.035 36.885)"/></svg>
